X:1154
T:March in the Battle of Prague.
M:C
L:1/8
Q:1/2=66
I: :: :|
N:triplet not marked explicitly in the score
Z:Jack Campin * www.campin.me.uk * 2009
K:G
g2 g>g g2  a/g/f/e/|{e}d2 d>d d2  bg |{f}e2    c'a   {g}f2  af|g2 g>g g2 ba |
a2 fg  aa  ba      |   g2 ef  gg  ag |{g}fe/f/ a/g/f/e/ d2 ^c2|d2 d>d d2 z2:|
d2 d>e f>g a>b     |   c'2ac' b2  bc'|   d'b   gg       c'a bg|a2 d>d d2 Bc |
d2 e>f g2  bg      |{g}f2 c'a b2(3dgb|   d'b   gg       ba  gf|g2 g>g g2 z2:|

